test/json/DNG.dng.json
[{
  "SourceFile": "D:/Projekte/nodejs/exiftool-wrapper/test/testfiles/DNG.dng",
  "ExifToolVersion": 10.19,
  "FileName": "DNG.dng",
  "Directory": "D:/Projekte/nodejs/exiftool-wrapper/test/testfiles",
  "FileSize": "13 kB",
  "FileModifyDate": "2016:05:02 08:19:08+02:00",
  "FileAccessDate": "2016:06:14 05:38:12+02:00",
  "FileCreateDate": "2016:06:14 05:38:12+02:00",
  "FilePermissions": "rw-rw-rw-",
  "FileType": "DNG",
  "FileTypeExtension": "dng",
  "MIMEType": "image/x-adobe-dng",
  "ExifByteOrder": "Big-endian (Motorola, MM)",
  "Make": "Canon",
  "Model": "Canon EOS 350D DIGITAL",
  "StripOffsets": 13470,
  "Orientation": "Horizontal (normal)",
  "RowsPerStrip": 8,
  "StripByteCounts": 192,
  "ModifyDate": "2005:08:03 18:59:18",
  "Artist": "unknown",
  "ImageWidth": 3516,
  "ImageHeight": 2328,
  "BitsPerSample": 16,
  "Compression": "JPEG",
  "PhotometricInterpretation": "Color Filter Array",
  "SamplesPerPixel": 1,
  "PlanarConfiguration": "Chunky",
  "TileWidth": 256,
  "TileLength": 240,
  "TileOffsets": 12494,
  "TileByteCounts": 22,
  "CFARepeatPatternDim": "2 2",
  "CFAPattern2": "0 1 1 2",
  "CFAPlaneColor": "Red,Green,Blue",
  "CFALayout": "Rectangular",
  "BlackLevelRepeatDim": "1 1",
  "BlackLevel": 0,
  "WhiteLevel": 4095,
  "DefaultScale": "1 1",
  "DefaultCropOrigin": "10 5",
  "DefaultCropSize": "3456 2304",
  "BayerGreenSplit": 0,
  "AntiAliasStrength": 1,
  "BestQualityScale": 1,
  "ActiveArea": "14 42 2328 3516",
  "MaskedAreas": "14 0 2328 40",
  "PreviewImageStart": 12780,
  "PreviewImageLength": 26,
  "YCbCrCoefficients": "0.299 0.587 0.114",
  "YCbCrSubSampling": "YCbCr4:2:0 (2 2)",
  "YCbCrPositioning": "Co-sited",
  "ReferenceBlackWhite": "0 255 128 255 128 255",
  "SubfileType": "Reduced-resolution image",
  "JpgFromRawStart": 13070,
  "JpgFromRawLength": 29,
  "XMPToolkit": "XMP toolkit 3.0-28, framework 1.6",
  "DateTimeDigitized": "2005:08:03 18:59:18-04:00",
  "FlashFired": false,
  "FlashReturn": "No return detection",
  "FlashMode": "Off",
  "FlashFunction": false,
  "FlashRedEyeMode": false,
  "LensInfo": "18-55mm f/?",
  "FlashCompensation": 0,
  "Firmware": "1.0.2",
  "DateTime": "2005:08:03 18:59:18-04:00",
  "Creator": "unknown",
  "ExposureTime": "1/15",
  "FNumber": 8.0,
  "ExposureProgram": "Aperture-priority AE",
  "ISO": 400,
  "ExifVersion": "0221",
  "DateTimeOriginal": "2005:08:03 18:59:18",
  "CreateDate": "2005:08:03 18:59:18",
  "ShutterSpeedValue": "1/15",
  "ApertureValue": 8.0,
  "MaxApertureValue": 4.0,
  "FocalLength": "55.0 mm",
  "FocalPlaneXResolution": 3954.23341,
  "FocalPlaneYResolution": 3958.762887,
  "FocalPlaneResolutionUnit": "inches",
  "CustomRendered": "Normal",
  "ExposureMode": "Auto",
  "SceneCaptureType": "Standard",
  "ImageNumber": 24,
  "DNGVersion": "1.1.0.0",
  "DNGBackwardVersion": "1.1.0.0",
  "UniqueCameraModel": "Canon EOS 350D",
  "LocalizedCameraModel": "Canon EOS 350D Digital",
  "ColorMatrix1": "0.6159 -0.0945 -0.0745 -0.6846 1.3563 0.3684 -0.0802 0.1086 0.7555",
  "ColorMatrix2": "0.6018 -0.0617 -0.0965 -0.8645 1.5881 0.2975 -0.153 0.1719 0.7642",
  "CameraCalibration1": "1.0069 0 0 0 1 0 0 0 1.0027",
  "CameraCalibration2": "1.0069 0 0 0 1 0 0 0 1.0027",
  "AnalogBalance": "1 1 1",
  "AsShotNeutral": "0.592408 1 0.501692",
  "BaselineExposure": 0.25,
  "BaselineNoise": 1.33,
  "BaselineSharpness": 1.5,
  "LinearResponseLimit": 1,
  "CameraSerialNumber": "012345678",
  "DNGLensInfo": "18-55mm f/?",
  "ShadowScale": 1,
  "MacroMode": "Normal",
  "SelfTimer": "Off",
  "Quality": "RAW",
  "CanonFlashMode": "Off",
  "ContinuousDrive": "Single",
  "FocusMode": "One-shot AF",
  "RecordMode": "CR2",
  "CanonImageSize": "n/a",
  "EasyMode": "Manual",
  "DigitalZoom": "None",
  "Contrast": "Normal",
  "Saturation": "Normal",
  "Sharpness": 0,
  "MeteringMode": "Center-weighted average",
  "FocusRange": "Not Known",
  "CanonExposureMode": "Aperture-priority AE",
  "LensType": "n/a",
  "MaxFocalLength": "55 mm",
  "MinFocalLength": "18 mm",
  "FocalUnits": "1/mm",
  "MaxAperture": 4,
  "MinAperture": 27,
  "FlashActivity": 0,
  "FlashBits": "(none)",
  "FocusContinuous": "Single",
  "ZoomSourceWidth": 0,
  "ZoomTargetWidth": 0,
  "PhotoEffect": "Off",
  "ManualFlashOutput": "n/a",
  "FocalType": "Zoom",
  "FocalPlaneXSize": "23.04 mm",
  "FocalPlaneYSize": "15.37 mm",
  "AutoISO": 100,
  "BaseISO": 400,
  "MeasuredEV": 8.00,
  "TargetAperture": 8,
  "TargetExposureTime": "1/15",
  "ExposureCompensation": 0,
  "WhiteBalance": "Auto",
  "SlowShutter": "None",
  "SequenceNumber": 0,
  "OpticalZoomCode": "n/a",
  "FlashGuideNumber": 0,
  "FlashExposureComp": 0,
  "AutoExposureBracketing": "Off",
  "AEBBracketValue": 0,
  "ControlMode": "Camera Local Control",
  "MeasuredEV2": 8.125,
  "BulbDuration": 0,
  "CameraType": "EOS Mid-range",
  "AutoRotate": "None",
  "NDFilter": "n/a",
  "SelfTimer2": 0,
  "CanonImageType": "Canon EOS 350D DIGITAL",
  "CanonFirmwareVersion": "Firmware 1.0.2",
  "OwnerName": "unknown",
  "SerialNumber": "0012345678",
  "SetButtonCrossKeysFunc": "Normal",
  "LongExposureNoiseReduction": "Off",
  "FlashSyncSpeedAv": "Auto",
  "Shutter-AELock": "AF/AE lock",
  "AFAssistBeam": "Emits",
  "ExposureLevelIncrements": "1/3 Stop",
  "MirrorLockup": "Disable",
  "ETTLII": "Evaluative",
  "ShutterCurtainSync": "1st-curtain sync",
  "CanonModelID": "EOS Digital Rebel XT / 350D / Kiss Digital N",
  "NumAFPoints": 7,
  "ValidAFPoints": 7,
  "CanonImageWidth": 3456,
  "CanonImageHeight": 2304,
  "AFImageWidth": 3456,
  "AFImageHeight": 2304,
  "AFAreaWidth": 189,
  "AFAreaHeight": 188,
  "AFAreaXPositions": "0 -1237 -742 0 742 1237 0",
  "AFAreaYPositions": "-617 0 0 0 0 0 617",
  "AFPointsInFocus": 3,
  "ThumbnailImageValidArea": "0 159 7 112",
  "SerialNumberFormat": "Format 2",
  "OriginalDecisionDataOffset": 0,
  "FileNumber": "100-0024",
  "BracketMode": "Off",
  "BracketValue": 0,
  "BracketShotNumber": 0,
  "LongExposureNoiseReduction2": "Off",
  "WBBracketMode": "Off",
  "WBBracketValueAB": 0,
  "WBBracketValueGM": 0,
  "FilterEffect": "None",
  "ToningEffect": "None",
  "ToneCurve": "Standard",
  "SharpnessFrequency": "n/a",
  "SensorRedLevel": 0,
  "SensorBlueLevel": 0,
  "WhiteBalanceRed": 0,
  "WhiteBalanceBlue": 0,
  "ColorTemperature": 5200,
  "PictureStyle": "None",
  "DigitalGain": 0,
  "WBShiftAB": 0,
  "WBShiftGM": 0,
  "MeasuredRGGB": "580 1024 1024 500",
  "VRDOffset": 0,
  "SensorWidth": 3516,
  "SensorHeight": 2328,
  "SensorLeftBorder": 52,
  "SensorTopBorder": 19,
  "SensorRightBorder": 3507,
  "SensorBottomBorder": 2322,
  "BlackMaskLeftBorder": 0,
  "BlackMaskTopBorder": 0,
  "BlackMaskRightBorder": 0,
  "BlackMaskBottomBorder": 0,
  "WB_RGGBLevelsAsShot": "2002 1185 1187 2364",
  "ColorTempAsShot": 3064,
  "WB_RGGBLevelsAuto": "1720 1022 1024 2031",
  "ColorTempAuto": 3064,
  "WB_RGGBLevelsDaylight": "2312 1022 1024 1501",
  "ColorTempDaylight": 5200,
  "WB_RGGBLevelsShade": "2714 1022 1024 1246",
  "ColorTempShade": 7000,
  "WB_RGGBLevelsCloudy": "2512 1022 1024 1355",
  "ColorTempCloudy": 6000,
  "WB_RGGBLevelsTungsten": "1523 1022 1024 2397",
  "ColorTempTungsten": 3201,
  "WB_RGGBLevelsFluorescent": "1944 1022 1024 2015",
  "ColorTempFluorescent": 3905,
  "WB_RGGBLevelsFlash": "2606 1022 1024 1308",
  "ColorTempFlash": 6440,
  "WB_RGGBLevelsCustom1": "2312 1022 1024 1501",
  "ColorTempCustom1": 5200,
  "WB_RGGBLevelsCustom2": "2312 1022 1024 1501",
  "ColorTempCustom2": 5200,
  "ColorTone": "Normal",
  "CalibrationIlluminant1": "Standard Light A",
  "CalibrationIlluminant2": "D65",
  "RawDataUniqueID": "0358DB4E08632D90925171A6BB8848A2",
  "OriginalRawFileName": "Canon350D.CR2",
  "Aperture": 8.0,
  "CFAPattern": "[Red,Green][Green,Blue]",
  "DriveMode": "Single-frame Shooting",
  "Flash": "Off, Did not fire",
  "ImageSize": "3516x2328",
  "JpgFromRaw": "(Binary data 29 bytes, use -b option to extract)",
  "Lens": "18.0 - 55.0 mm",
  "LensID": "Unknown 18-55mm",
  "Megapixels": 8.2,
  "PreviewImage": "(Binary data 26 bytes, use -b option to extract)",
  "ScaleFactor35efl": 1.6,
  "ShootingMode": "Aperture-priority AE",
  "ShutterSpeed": "1/15",
  "ThumbnailTIFF": "(Binary data 408 bytes, use -b option to extract)",
  "WB_RGGBLevels": "2002 1185 1187 2364",
  "BlueBalance": 1.993255,
  "CircleOfConfusion": "0.019 mm",
  "FOV": "22.8 deg",
  "FocalLength35efl": "55.0 mm (35 mm equivalent: 89.2 mm)",
  "HyperfocalDistance": "20.42 m",
  "Lens35efl": "18.0 - 55.0 mm (35 mm equivalent: 29.2 - 89.2 mm)",
  "LightValue": 7.9,
  "RedBalance": 1.688027
}]
